images/footer/graduation-color.svg

<svg clip-rule="evenodd" fill-rule="evenodd" stroke-linejoin="round" stroke-miterlimit="1.41421" viewBox="0 0 2304 1792" xmlns="http://www.w3.org/2000/svg"><path d="m1774 836 18 316c2.67 46-24.67 88.67-82 128s-135.67 70.5-235 93.5-207 34.5-323 34.5-223.667-11.5-323-34.5-177.667-54.17-235-93.5-84.667-82-82-128l18-316 574 181c14.67 4.67 30.67 7 48 7s33.33-2.33 48-7zm530-324c0 15.333-7.33 25.667-22 31l-1120 352c-2.67.667-6 1-10 1s-7.33-.333-10-1l-652-206c-28.667 22.667-52.333 59.833-71 111.5s-30 111.167-34 178.5c42 24 63 60.33 63 109 0 46-19.333 81.67-58 107l58 433c1.333 9.33-1.333 17.67-8 25-6 7.33-14 11-24 11h-192c-10 0-18-3.67-24-11-6.667-7.33-9.333-15.67-8-25l58-433c-38.667-25.33-58-61-58-107 0-48.67 21.667-85.67 65-111 7.333-138 40-248 98-330l-333-104c-14.667-5.333-22-15.667-22-31s7.333-25.667 22-31l1120-352c2.67-.667 6-1 10-1s7.33.333 10 1l1120 352c14.67 5.333 22 15.667 22 31z" fill="#606c76" fill-rule="nonzero"/></svg>

<?xml version="1.0" encoding="UTF-8" standalone="no"?>
<!DOCTYPE svg PUBLIC "-//W3C//DTD SVG 1.1//EN" "http://www.w3.org/Graphics/SVG/1.1/DTD/svg11.dtd">
<svg width="100%" height="100%" viewBox="0 0 1792 1792" version="1.1" xmlns="http://www.w3.org/2000/svg" xmlns:xlink="http://www.w3.org/1999/xlink" xml:space="preserve" xmlns:serif="http://www.serif.com/" style="fill-rule:evenodd;clip-rule:evenodd;stroke-linejoin:round;stroke-miterlimit:1.41421;">
    <g transform="matrix(0.706346,0,0,0.689546,96.6278,280.785)">
        <path d="M1774,836L1792,1152C1794.67,1198 1767.33,1240.67 1710,1280C1652.67,1319.33 1574.33,1350.5 1475,1373.5C1375.67,1396.5 1268,1408 1152,1408C1036,1408 928.333,1396.5 829,1373.5C729.667,1350.5 651.333,1319.33 594,1280C536.667,1240.67 509.333,1198 512,1152L530,836L1104,1017C1118.67,1021.67 1134.67,1024 1152,1024C1169.33,1024 1185.33,1021.67 1200,1017L1774,836ZM2304,512C2304,527.333 2296.67,537.667 2282,543L1162,895C1159.33,895.667 1156,896 1152,896C1148,896 1144.67,895.667 1142,895L490,689C461.333,711.667 437.667,748.833 419,800.5C400.333,852.167 389,911.667 385,979C427,1003 448,1039.33 448,1088C448,1134 428.667,1169.67 390,1195L448,1628C449.333,1637.33 446.667,1645.67 440,1653C434,1660.33 426,1664 416,1664L224,1664C214,1664 206,1660.33 200,1653C193.333,1645.67 190.667,1637.33 192,1628L250,1195C211.333,1169.67 192,1134 192,1088C192,1039.33 213.667,1002.33 257,977C264.333,839 297,729 355,647L22,543C7.333,537.667 0,527.333 0,512C0,496.667 7.333,486.333 22,481L1142,129C1144.67,128.333 1148,128 1152,128C1156,128 1159.33,128.333 1162,129L2282,481C2296.67,486.333 2304,496.667 2304,512Z" style="fill:rgb(96,108,118);fill-rule:nonzero;"/>
    </g>
</svg>
